X:1
T:Title
%%score { 1 | 2 }
L:1/8
M:4/8
K:F
V:1 treble nm="Grand Piano"
V:2 bass 
V:1
 z2 z[Q:1/4=90] F | AAAA | c2 A[CF] | [CDA][B,DG][A,CF][G,CE] | [A,CF]3 [A,CF] | %5
 [CEG][CEG][CFA][CFA] |[M:3/8] [CGB][CGB][CFA] |[M:1/8] [CEG] |[M:2/4] [CFA][CFA] [CGB][CGB] | %9
 [Ac][Ac] [FA][Fc] | [Fd][Fd] [DB][Fd] | [Fc]3 [CF] | [CDA][B,DG] [G,CF][G,CE] |[M:3/8] [A,CF]3 |] %14
V:2
 z2 z [F,A,] | [F,CF][F,CF][F,CF][F,CF] | [F,A,F]2 [F,CF]A,, | B,,B,,C,C, | F,3 F, | C,C,F,F, | %6
[M:3/8] E,E,F, |[M:1/8] C, |[M:2/4] F,F, F,F, | [F,F][F,F] [F,C][F,A,] | %10
 [B,,B,][B,,B,] [B,,F,][B,,B,] | [F,A,]3 A,, | B,,B,, C,C, |[M:3/8] F,3 |] %14

